X: 28980
T: Narrow West Road
R: hornpipe
M: 4/4
K: Gmajor
D|:GFGA BdcB|ABAG FED2|GFGA BdcB|ABAG F2 D/E/F|
GFGA BdcB|ABAG FED2|DEDE Fedc|1 BGAF G2 D/E/F:|2 BGAF G2 d/e/f||
g2 g2 e2 ge|dedc BA G2|d^cde fgfe|ded^c d2 d/e/f|
g2 g2 e2 ge|dedc BA G2|d^cde fgef|1 dcAF G2 d/e/f:|2 dcAF G2 D2||

